X:1
T: Honourable Miss Sempill's Reel
C:
R:Reel
Q: 232
K:G
M:4/4
L:1/8
|:f|g2 dB GB dB|a2 ec Ac ea|g2 dB GB dB|ce dc BG Gf|
g2 dB GB dB|a2 ec Ac ea|g2 eg dg Bg|cA d1/2c1/2B1/2A1/2 BG GD|
B,D GD CE AE|DF AB cA BG|B,D GD CE AE|DF Ac BG GD|
B,D GD CE AE|DF AB ce dc|Bd gB ce ag|fd af gG G:|
